svg/black/snt.svg

<svg xmlns="http://www.w3.org/2000/svg" width="32" height="32" viewBox="0 0 32 32">
  <path d="M16,32 C7.163444,32 0,24.836556 0,16 C0,7.163444 7.163444,0 16,0 C24.836556,0 32,7.163444 32,16 C32,24.836556 24.836556,32 16,32 Z M13.30032,15.02064 C15.54992,15.02064 16.61472,15.45456 18.864,15.45472 C21.91136,15.45472 24,14.2112 24,11.63648 C24,9.06176 22.25984,7.81824 19.72016,7.81824 C15.57232,7.81792 12.08832,10.98336 11.63632,15.16384 C12.1854569,15.0654457 12.7424463,15.0175124 13.30032,15.02064 Z M13.136,16.54544 C10.0888,16.54544 8,17.78896 8,20.36368 C8,22.9384 9.74016,24.18192 12.27984,24.18192 C16.42816,24.18192 19.91184,21.0168 20.36368,16.83632 C19.8145431,16.9347143 19.2575537,16.9826476 18.69968,16.97952 C16.45008,16.97936 15.38528,16.54544 13.136,16.54544 Z"/>
</svg>

<svg xmlns="http://www.w3.org/2000/svg" width="32" height="32"><path d="M16 32C7.163 32 0 24.837 0 16S7.163 0 16 0s16 7.163 16 16-7.163 16-16 16zm-2.7-16.98c2.25 0 3.315.435 5.564.435 3.047 0 5.136-1.244 5.136-3.819 0-2.574-1.74-3.818-4.28-3.818-4.148 0-7.632 3.165-8.084 7.346a9.144 9.144 0 0 1 1.664-.143zm-.164 1.525C10.089 16.545 8 17.79 8 20.364c0 2.574 1.74 3.818 4.28 3.818 4.148 0 7.632-3.165 8.084-7.346a9.144 9.144 0 0 1-1.664.144c-2.25 0-3.315-.435-5.564-.435z"/></svg>
